!!!!SEGMENT: pl-kk--kk-i-40--005-001_flori-georg--missa-kyrie.krn
!!!cenid: 16xx:1293
!!!COM: Flori, Georg
!!!COM-rismID: pe30007781
!!!CDT: ~1558-~1594
!!!CNT: Dutch
!!!OPR: Missa
!!!OTL: Kyrie
!!!OMV: 001
!!!PDT:
!!!AGN: Sacred; Mass
!!!YEC: Copyright 2022 Narodowy Instytut Fryderyka Chopina (https://polishscores.org)
!!!YEM: License CC-BY-4.0 (https://creativecommons.org/licenses/by/4.0)
!!!SMS-siglum: PL-Kk
!!!SMS-shelfmark: Kk.I.40
!!!SMS-shelfwork: 005-001 M
!!!SMS-variant:
!!!SMS-altvar:
!!!NIFC-rismSourceID: 1001154484
!!!NIFC-rismChildID: 1001154491
!!!NIFC-islandoraID: pl-kk:2717
!!!URL-pdf-islandora: https://repozytorium.nifc.pl/islandora/object/pl-kk%3A2717/datastream/PDF/view
!!!URL-scan: https://polish.musicsources.pl/pl/lokalizacje/galeria/rekopisy/6010 @EN{Scan on Polish Music Sources Website} @PL{Skany w portalu Dziedzictwo Muzyki Polskiej w otwartym dostępie}
!!!IIIF:
!!!ONB-nifc: UWAGA: części Mszy: 1. Kyrie, 2. Et in terra, 3. Sanctus, 4. Agnus Dei. Skan 0008-0009
!!!AIN: 1 empty
!!!key:
**kern	**text
*staff1	*
*Iempty	*
*I"Baſso Ripieno.	*
*clefC4	*
*k[b-]	*
*g:	*
*M2/1	*
*met(c|)	*
=1-	=1-
*2\right	*
!LO:TX:a:i:t=Lente	!
2.d\	Ky-
!LO:TX:t=P:problem=kreska pseudotaktowa	!
4A\	-ri-
4c\	-e
4d\	e-
2A\	-lei-
=2-	=2-
2D/	-son
!LO:TX:t=P:problem=kreska pseudotaktowa	!
2rF	.
2rF	.
*	*ij
4.D/	Ky-
!LO:TX:t=P:problem=kreska pseudotaktowa	!
8D/	-ri-
=3-	=3-
4G/	-e
4A/	e-
4F/	-lei-
4G/	.
2A/	.
4D,</	-son
*	*Xij
!LO:TX:t=P:problem=kreska pseudotaktowa	!
4D/	Ky-
=4-	=4-
2G/	-ri-
4C/	-e
4c\	e-
1d	-lei-
=5-	=5-
2G,</	-son
2G/	e-
4A\	-lei-
4B-\	.
4c\	.
4d\	.
=6-	=6-
!LO:TX:t=P:problem=kreska pseudotaktowa	!
1G	-son
2rD	.
!LO:TX:t=P:problem=kreska pseudotaktowa	!
2D/	Ky-
!LO:LB:g=original	!
=7-	=7-
2G/	-ri-
4c\	-e
!LO:TX:t=P:problem=kreska pseudotaktowa	!
4c\	e-
4B-\	-lei-
4G/	.
!LO:TX:t=P:problem=kreska pseudotaktowa	!
2A/	-son
=8-	=8-
4D,</	.
2d\	Ky-
4D/	-ri-
2G/	-e
2c\	e-
=9-	=9-
1d	-lei-
!LO:TX:t=P:problem=podwójna kreska pseudotaktowa	!
0G;>	-son
=10||	=10||
*M2/1	*
*met(c|)	*
!LO:TX:a:i:t=Christe \nTacet	!
0r	.
=11-	=11-
!LO:TX:t=P:problem=kreska pseudotaktowa	!
1r	.
=12-	=12-
2r	.
4r	.
!LO:TX:t=P:problem=kreska pseudotaktowa	!
4c\	Ky-
4B-\	-ri-
4G/	-e
4A/	e-
4B-/	.
=13-	=13-
2c\	lei-
2G,</	-son
*	*ij
4F/	Ky-
4D/	.
4E/	.
!LO:TX:t=P:problem=kreska pseudotaktowa	!
4F/	.
=14-	=14-
4G/	-ri-
4G/	-e
4F/	.
4B-\	.
2A\	e-
2A\	-lei-
=15-	=15-
2D,</	-son
*	*Xij
!LO:TX:t=P:problem=kreska pseudotaktowa	!
2d\	Ky-
2B-\	-ri-
2c\	-e
=16-	=16-
2d\	e-
!LO:TX:t=P:problem=kreska pseudotaktowa	!
2e-X\	.
!LO:LB:g=original	!
2c\	.
2c\	-lei-
=17-	=17-
1d	-son
!LO:TX:t=P:problem=kreska pseudotaktowa	!
1G	.
=18-	=18-
2rF	.
4r	.
4D/	Ky-
2G/	-ri-
2A/	-e
=19-	=19-
2F/	.
!LO:TX:t=P:problem=kreska pseudotaktowa	!
2D/	.
2G/	e-
2G/	-lei-
=20-	=20-
1D	.
!LO:TX:t=P:problem=podwójna kreska pseudotaktowa	!
0G;>	-son.
=||	=||
*-	*-
!!!RDF**kern: > = above
!!!RDF**kern: < = below
!!!EED: Antoni Szymański
!!!EEV: 2021-07-31
!!!ENC: Berenika Jozajtis
!!!END: 2021-07-04
